!!!!SEGMENT: 008-1b-W-004-violino.krn
!!!COM: Chopin, Fryderyk
!!!OTL: Trio
!!!OPS: Op. 8
!!!PTL: First Grand Trio for Pianoforte, Violin et Violoncello. Concertant.
!!!PPR: Wessel
!!!NIFC-rismID: PL-Wbfc F.7151 a, b.
!!!NIFC-shelfmark: PL-Wbfc F.7151 a, b.
!!!OMD: ALLEGRETTO.
!!!OMD: [quarter] = 104.
!!!system-decoration: s1,s2{(s3,s4)}
**kern	**fing	**dynam
*part1	*	*part1
*I"FINALE.	*	*
*2\right	*	*
*staff1	*	*
*clefG2	*	*
*k[b-e-]	*	*
*M2/4	*	*
8r	.	.
=1	=1	=1
2r	.	.
=2	=2	=2
2r	.	.
=3	=3	=3
2r	.	.
=4	=4	=4
2r	.	.
=5	=5	=5
2r	.	.
=6	=6	=6
2r	.	.
=7	=7	=7
2r	.	.
=8	=8	=8
2r	.	.
=9	=9	=9
2r	.	.
=10	=10	=10
2r	.	.
=11	=11	=11
2r	.	.
=12	=12	=12
2r	.	.
=13	=13	=13
2r	.	.
=14	=14	=14
2r	.	.
=15	=15	=15
2r	.	.
=16	=16	=16
2r	.	.
=17	=17	=17
!LO:TX:t=P:w 16 taktach przerwy 4 znaki pionowe przy '16':problem	!	!
!	!	!LO:DY:rj
[<2a	.	p
=18	=18	=18
2a_<	.	.
=19	=19	=19
2a_<	.	.
=20	=20	=20
2a]	.	.
=21	=21	=21
*^	*	*
2a	4rc	.	.
.	(>\4g	.	.
=22	=22	=22	=22
[>2a)	2f#X	.	.
=23	=23	=23	=23
(>2a]/	(<2g	.	.
*v	*v	*	*
=24	=24	=24
8f#X))	.	.
8r	.	.
4r	.	.
=25	=25	=25
2r	.	.
=26	=26	=26
2r	.	.
=27	=27	=27
2r	.	.
=28	=28	=28
2r	.	.
=29	=29	=29
2r	.	.
=30	=30	=30
2r	.	.
=31	=31	=31
2r	.	.
=32	=32	=32
2r	.	.
=33	=33	=33
2r	.	.
=34	=34	=34
2r	.	.
=35	=35	=35
!LO:TX:t=P:w 10 taktach przerwy 3 znaki pionowe przy '10':problem	!	!
4r	.	f
!LO:TX:a:B:i:t=con fuoco	!	!
!LO:TX:t=P:mixed beam:problem	!	!
8dL/	.	<
(<16ddL\	.	.
16ccJJ\	.	[
!!LO:LB:g=original
=36	=36	=36
8b-L	.	>
8gJ)	.	]
8r	.	.
!	!	!LO:DY:rj
(<8a	.	p
=37	=37	=37
8g)	.	.
8r	.	.
!	!	!LO:DY:rj
!LO:TX:t=P:mixed beam:problem	!	!
(>8dL/	.	f <
16ddL\	.	.
16ccJJ\	.	[
=38	=38	=38
8b-L	.	.
16aL	.	>
16gJJ	.	.
16fLL	.	]
16g	.	.
16en	.	.
16aJJ)	.	.
=39	=39	=39
8fL	.	.
8dJ	.	.
8r	.	.
(>8cc#X	.	.
=40	=40	=40
8dd)	.	.
8r	.	.
!LO:TX:t=P:mixed beam:problem	!	!
8aL/	.	f
(>16aaL\	.	.
16ggJJ\	.	.
=41	=41	=41
8ffL	.	.
8ddJ)	.	.
8r	.	.
[>8dd	.	.
=42	=42	=42
(>8ddL]	.	.
8ddJ	.	.
!LO:TX:t=P:diminuendolike accent:problem	!	!
8ee-^<L	.	.
16ddL	.	.
(<16ccJJ)	.	.
=43	=43	=43
8b-L	.	.
8gJ)	.	.
4r	.	.
=44	=44	=44
8r	.	.
[<8g^<	1	.
!LO:TX:t=P:mixed beam:problem	!	!
(>8gL]/	.	.
16ggL\	.	.
16ffJJ\	.	.
=45	=45	=45
8ee-L	.	.
8ccJ)	.	.
4r	.	.
!!LO:LB:g=original
=46	=46	=46
8r	.	.
[>8cc	1	.
8ccL]	.	.
16cccL	.	.
16bb-JJ	.	.
=47	=47	=47
8aa-XL	2	.
(>8ccJ	1	.
!LO:TX:t=P:mixed beam:problem	!	!
8fL)/	1	.
(>16ffL\	4	.
16ee-JJ\	.	.
=48	=48	=48
8dd-XL	.	.
8ddnJ	.	.
8ee-LL)	2	.
(>16gg	.	.
16ffJJ	.	.
=49	=49	=49
8ee-L	.	.
8ccJ	.	.
8b-)	.	.
8r	.	.
=50	=50	=50
8r	.	.
[<8a	.	.
!LO:TX:t=P:mixed beam:problem	!	!
8aL]/	.	.
(>16aaL\	.	.
16ggJJ\	.	.
=51	=51	=51
8ff`>L)	.	.
(>8eenJ	.	.
[<4a)	.	.
=52	=52	=52
8a]	.	.
!	!	!LO:DY:rj
(<8dL	.	f
8c	.	.
8B-J)	.	.
=53	=53	=53
8A	.	.
8r	.	.
!LO:TX:t=P:mixed beam:problem	!	!
8dL/	.	.
(>\16ddL\	.	.
16ccJJ\	.	.
=54	=54	=54
8b-\L	.	.
8gJ)	.	.
!LO:TX:t=P:mixed beam:problem	!	!
8fL/	.	.
(>16ffL\	.	<
16eenJJ\	.	.
!!LO:LB:g=original
=55	=55	=55
8ddL	.	.
8bn	.	.
8a	.	.
8ccJ	.	.
=56	=56	=56
!	!	!LO:DY:rj
8b-XL)/	.	ff
[<8gJ	.	.
16gLL]	.	>
16f#X	.	]
(<16g	.	.
16dJJ	.	.
=57	=57	=57
16c#X)	.	.
16r	.	.
8r	.	.
4r	.	.
=58	=58	=58
2r	.	.
=59	=59	=59
2r	.	.
=60	=60	=60
2r	.	.
=61	=61	=61
2r	.	.
=62	=62	=62
2r	.	.
=63	=63	=63
2r	.	.
=64	=64	=64
2r	.	.
=65	=65	=65
2r	.	.
=66	=66	=66
2r	.	.
=67	=67	=67
2r	.	.
=68	=68	=68
2r	.	.
=69	=69	=69
2r	.	.
=70	=70	=70
2r	.	.
=71	=71	=71
2r	.	.
=72	=72	=72
2r	.	.
=73	=73	=73
2r	.	.
=74	=74	=74
2r	.	.
=75	=75	=75
2r	.	.
=76	=76	=76
!LO:TX:t=P:w 18 taktach przerwy 5 znaków pionowych przy '18':problem	!	!
4r	.	.
!LO:TX:B:a:i:t=espress.	!	!
8r	.	.
(<8A	.	.
=77	=77	=77
4a	.	.
4d	.	.
=78	=78	=78
8gL)	.	.
8gJ	.	.
4en	.	.
=79	=79	=79
(<4a	.	.
4d	.	.
=80	=80	=80
8gL)	.	.
8gJ	.	.
16qqg/LL	.	.
16qqf/JJ	.	.
4en	.	.
=81	=81	=81
4a	.	.
4d	.	.
=82	=82	=82
8gL	.	.
8gJ	.	.
4c	.	.
!!LO:LB:g=original
=83	=83	=83
4f	.	.
(<4B-	.	.
=84	=84	=84
8dL	.	.
16c#XL	.	.
16dJJ	.	.
4en)	.	.
=85	=85	=85
(<4a	.	.
4d	.	.
=86	=86	=86
4c#X)	.	.
8r	.	.
!	!	!LO:DY:rj
8b-/	.	p
=87	=87	=87
(<4a	.	.
4d	.	.
=88	=88	=88
4c#X)	.	.
8r	.	.
!	!	!LO:DY:rj
(<8b-/	.	ff
=89	=89	=89
4a	.	.
!LO:TX:t=P:diminuendolike accent:problem	!	!
8b-^<L	.	.
16aL	.	.
16gJJ)	.	.
=90	=90	=90
!LO:TX:t=P:diminuendolike accent:problem	!	!
(<4f^<	.	.
4d)	.	p
=91	=91	=91
2r	.	.
=92	=92	=92
2r	.	.
=93	=93	=93
!LO:TX:b:Bi:t=poco a poco:dur=3qe:problem:text with extention lines	!	!
(<4f	.	.
4d	.	.
=94	=94	=94
8f#XL	.	.
8f#J	.	.
4d#X	.	<
=95	=95	=95
4g#X	.	.
4en	.	.
=96	=96	=96
8bnL/	.	.
8bJ	.	.
4en)	.	.
!!LO:PB:g=original
=97	=97	=97
(>4een	.	p
4a	.	.
=98	=98	=98
8ddL)	.	.
(>8ddJ	.	.
4bn)	.	.
=99	=99	=99
[>2een	.	.
=100	=100	=100
2eenX]	.	.
=101	=101	=101
(>4ff	.	.
4b-X	.	.
=102	=102	=102
8ee-XL)	.	.
(>8ee-J	.	.
4cc)	.	.
=103	=103	=103
!LO:TX:t=P:diminuendolike accent:problem	!	!
(>4dd^<	.	.
8ccL	.	.
8b-J	.	.
=104	=104	=104
4.cc)	.	.
(>8dd	.	.
=105	=105	=105
8b-)	.	.
8r	.	.
4r	.	.
=106	=106	=106
2r	.	.
=107	=107	=107
2r	.	.
=108	=108	=108
2r	.	.
=109	=109	=109
2r	.	.
=110	=110	=110
2r	.	.
=111	=111	=111
2r	.	.
=112	=112	=112
2r	.	.
=113	=113	=113
2r	.	.
=114	=114	=114
2r	.	.
=115	=115	=115
2r	.	.
=116	=116	=116
2r	.	.
=117	=117	=117
2r	.	.
=118	=118	=118
2r	.	.
=119	=119	=119
2r	.	.
=120	=120	=120
2r	.	.
=121	=121	=121
2r	.	.
=122	=122	=122
2r	.	.
=123	=123	=123
2r	.	.
!LO:TX:a:Bi:t=poco	!	!
!LO:TX:a:i:t=rit&colon;	!	!
=124	=124	=124
!LO:TX:t=P:w 18 taktach przerwy 5 znaków pionowych przy '18':problem	!	!
8r	.	.
!LO:TX:B:a:i:t=A Tempo.	!	!
8b-	.	.
!LO:TX:t=P:diminuendolike accent:problem	!	!
[>4dd^<	.	.
=125	=125	=125
4dd]	.	.
(>16cc#XLL	.	.
16dd	1	.
16een	.	.
16ff#XJJ	.	.
=126	=126	=126
8ggL)	4	.
(>8b-J	.	.
4dd^<)	.	.
!!LO:LB:g=original
=127	=127	=127
(<4a	2	.
16g#XLL	.	.
16a	.	.
16b-	.	.
16aJJ	.	.
=128	=128	=128
!LO:TX:a:t=P:łuk kończy się na kresce taktowej:problem	!	!
8gL)	.	.
8b-`<J	.	.
(<4d^<	.	.
=129	=129	=129
4dd)	.	.
(>16cc#XLL	.	<
16dd	.	.
16een	.	.
16ff#XJJ	.	[
=130	=130	=130
8ggL)	4	.
8b-J	.	.
[>4dd^<	.	.
=131	=131	=131
(>8ddL]	.	.
8ccny	.	.
8g	.	.
8aJ	.	.
=132	=132	=132
4f#X/)	.	.
8dL	.	.
(<8AJ	.	.
=133	=133	=133
4a	.	.
16g#XLL	.	.
16a	.	.
16bn	.	.
16cc#XJJ	.	.
=134	=134	=134
8ddL)	.	.
8f#X`<J	.	.
4a^<	2	.
=135	=135	=135
(<4en	3	.
16d#XLL	.	.
16e	.	.
16f#X	.	.
16eJJ)	.	.
=136	=136	=136
8dn`<L	.	.
8f#X`<J	.	.
4A	.	.
!!LO:LB:g=original
=137	=137	=137
*^	*	*
!	!	!	!LO:DY:a
[>2a	4rc	.	p
.	(<4g	.	.
=138	=138	=138	=138
2a]	2f#X)	.	.
=139	=139	=139	=139
(>2a/	(<2g	.	.
*v	*v	*	*
=140	=140	=140
8f#X))	.	.
8r	.	.
4r	.	.
=141	=141	=141
2r	.	.
=142	=142	=142
2r	.	.
=143	=143	=143
2r	.	.
=144	=144	=144
2r	.	.
=145	=145	=145
2r	.	.
=146	=146	=146
2r	.	.
=147	=147	=147
2r	.	.
=148	=148	=148
2r	.	.
=149	=149	=149
2r	.	.
=150	=150	=150
2r	.	.
=151	=151	=151
!LO:TX:t=P:w 10 taktach przerwy 3 znaki pionowe przy '10':problem	!	!
!LO:TX:a:Bi:t=con fuoco.	!	!
4r	.	.
!	!	!LO:DY:rj
!LO:TX:t=P:mixed beam:problem	!	!
8d`<L/	.	f
(>16ddL\	.	.
16ccJJ\	.	.
=152	=152	=152
8b-L	.	.
8gJ)	.	.
8r	.	.
(<8a	.	.
=153	=153	=153
8g)	.	.
8r	.	.
!LO:TX:t=P:mixed beam:problem	!	!
8d`<L/	.	.
(>16ddL\	.	.
16ccJJ\	.	.
=154	=154	=154
8b-L	.	.
16aL	.	.
16gJJ	.	.
16fLL	.	.
16g	.	.
16e-	.	.
16fJJ	.	.
=155	=155	=155
8dL	.	.
8B-J)	.	.
8r	.	.
8a	.	f
=156	=156	=156
8b-/	.	.
8r	.	.
!LO:TX:t=P:mixed beam:problem	!	!
8fL/	.	>
(>16ffL\	.	.
16ee-JJ\	.	]
=157	=157	=157
8ddL	.	.
8b-J)	.	.
8r	.	.
(<8a	.	.
!!LO:LB:g=original
=158	=158	=158
!LO:TX:a:t=P:łuk zmienia położenie po zmianie systemu:problem	!	!
8b-)	.	.
4dd^<	.	.
(>8een	.	.
=159	=159	=159
8ff)	.	.
8r	.	.
8r	.	.
[<8c	.	.
=160	=160	=160
8c^<L]	.	.
(<16ccL	.	.
16b-JJ	.	.
8aL)	.	.
[<8en^<J	.	.
=161	=161	=161
!LO:TX:t=P:mixed beam:problem	!	!
8enXL]/	.	.
(>16eenL\	.	.
16ddJJ\	.	.
8ccL)\	.	.
[>8gJ	.	.
=162	=162	=162
16gLL]	.	.
16cc	.	<
(>16ee-X	.	.
16ffJJ	.	.
16ggLL	.	.
16ff#X	.	.
16gg	.	.
16aaJJ	.	[
=163	=163	=163
8bb-X)	.	.
8r	.	.
8r	.	.
8f^<	.	.
=164	=164	=164
!LO:TX:t=P:mixed beam:problem	!	!
8fL/	.	.
(>16ffL\	.	.
16ee-JJ\	.	.
8ddL)	.	.
[>8aJ	.	.
=165	=165	=165
!LO:TX:t=P:mixed beam:problem	!	!
8aL]/	.	.
(>16aaL\	.	.
16ggJJ\	.	.
8ffL)	.	.
[>8ccJ	.	.
=166	=166	=166
16ccLL]	.	.
(>16een	.	.
16ff	.	.
16ggJJ	1	.
16aa-XLL	.	.
16gg	.	.
16aa-	.	.
16bb-JJ	.	.
!!LO:LB:g=original
=167	=167	=167
8ccc)	.	.
8r	.	.
(<16f#XLL	.	<
16g	.	.
16cc	.	.
16b-JJ	.	[[
=168	=168	=168
*^	*	*
4any)	8rc	.	.
.	8c	.	.
4b-	4d	.	.
*v	*v	*	*
=169	=169	=169
(<4d-X	.	.
16enLL	.	<
16f	.	.
16b-	.	.
16a-XJJ)	.	[[
=170	=170	=170
*^	*	*
4g	8rc	.	.
.	8B-	.	.
[<4a-X	4c	.	.
*v	*v	*	*
=171	=171	=171
4a-X]	.	.
(<16g/LL	.	<
16a-	.	.
16cc	.	.
16dd-XJJ)	.	[[
=172	=172	=172
8ee-`>L	.	.
8a-X`>J	.	.
4ff^<	.	.
=173	=173	=173
4b-	.	.
(>16anLL	.	<
16b-	.	.
16ddny	.	.
16ee-JJ	.	[[
=174	=174	=174
8ffL)	.	.
8b-J	.	.
8ggL	4	>
16ffL	.	.
16ee-JJ	.	]
=175	=175	=175
8aa-	.	.
8r	.	.
(<16enLL	.	<
16f	.	.
16g	.	.
16a-XJJ)	.	[[
!!LO:LB:g=original
=176	=176	=176
(<8b-L	.	.
8gJ)	.	.
4cc^<	.	.
=177	=177	=177
8a-X/	.	.
8r	.	.
(<16cLL	.	<
16d-X	.	.
16e-	.	.
16fJJ	.	.
=178	=178	=178
8gL)	.	[
8e-`<J	.	.
4a-X^<	.	.
=179	=179	=179
8f	.	.
4b-^</	.	.
8a-X	.	.
=180	=180	=180
(<4a-X	.	>
8gL	.	.
8fJ)	.	]
=181	=181	=181
!	!	!LO:HP:a
4.en	.	>
(<8f	.	<
=182	=182	=182
8gL)	.	[
8B-J	.	.
!LO:TX:t=P:diminuendolike accent:problem	!	!
[<4g^<	.	.
=183	=183	=183
4g]	.	.
(<16enLL	.	<
16f	.	.
16g	.	.
16a-XJJ	.	[[
=184	=184	=184
8gL)	.	f
8c`<J	.	.
8gL	.	.
8fJ	.	.
=185	=185	=185
4en	.	.
(<16eLL	.	<
16f	.	.
16g	.	.
16a-XJJ)	.	[[
!!LO:LB:g=original
=186	=186	=186
2g	.	<[
=187	=187	=187
[<4f#X	.	.
16f#LL]	.	<
16g	.	.
16a	.	.
16b-JJ	.	[
=188	=188	=188
4.a^<	.	.
8g 8c#X	.	.
=189	=189	=189
4f#X 4d	.	.
(<16enLL	.	<
16fn	.	[
16g	.	>
16fJJ	.	]
=190	=190	=190
4f)	.	>
(<4e-X	.	]
=191	=191	=191
8d-X)	.	.
8r	.	.
!LO:TX:t=P:diminuendolike accent:problem	!	!
[<4a-^<X	2	.
=192	=192	=192
4a-X]	.	.
(<16gLL	.	<
16a-	.	.
16b-	.	.
16ccJJ)	.	[[
=193	=193	=193
8dd-X`<L	.	.
8f`<J	.	.
4a-^</	2	.
=194	=194	=194
4a-X	.	.
!LO:TX:t=P:diminuendolike accent:problem	!	!
[<4an^<	2	.
=195	=195	=195
8aL]	.	.
8c#XJ	1	.
!LO:TX:t=P:diminuendolike accent:problem	!	!
[<4en^<	3	.
=196	=196	=196
4enX]	.	.
4c#X	.	p
!!LO:LB:g=original
=197	=197	=197
!LO:TX:t=P:diminuendolike accent:problem	!	!
[<2en^<	.	.
=198	=198	=198
4enX]	.	.
(<4c#X	.	.
=199	=199	=199
8B#X)	.	.
8r	.	.
[<4e-X	3	.
=200	=200	=200
4e-^>]	.	.
(<4c	.	.
=201	=201	=201
4e-^>	.	.
4c	.	.
=202	=202	=202
8e-L)	.	.
8e-`<J	.	.
(<4c	.	.
=203	=203	=203
8Bn)	.	.
8r	.	.
4r	.	.
=204	=204	=204
2rdd	.	.
=205	=205	=205
2rdd	.	.
=206	=206	=206
4r	.	.
!	!	!LO:DY:rj
!LO:TX:t=P:mixed beam:problem	!	!
8d`<^>L/	.	p
(>16ddL\	.	.
16ccJJ\	.	.
=207	=207	=207
8bnL	.	.
8gJ)	.	.
4r	.	.
=208	=208	=208
2r	.	.
=209	=209	=209
2r	.	.
=210	=210	=210
2r	.	.
=211	=211	=211
!LO:TX:t=P:w 3 taktach przerwy znak pionowy i poziomy przy '3':problem	!	!
!	!	!LO:DY:rj
4d	.	f
(<4G	.	.
=212	=212	=212
8fL)	.	.
(<8fJ	.	.
4Bn)	3	.
!!LO:LB:g=original
=213	=213	=213
4a-X^<	.	.
4Bn	.	.
=214	=214	=214
!LO:TX:a:Bi:t=Rall&colon;	!	!
4g^<	.	.
4Bn	.	.
=215	=215	=215
!LO:TX:a:B:i:t=A Tempo.	!	!
4g^<	.	.
(<4c	.	.
=216	=216	=216
8fL)	.	.
8fJ	.	.
4d	.	.
=217	=217	=217
4g	.	.
(<4c	.	.
=218	=218	=218
8fL)	.	.
8fJ	.	.
4d	.	.
=219	=219	=219
(<4g	.	<
4an	.	.
=220	=220	=220
8ccL	.	.
8b-	.	[
8a-X	.	>
8gJ	.	.
=221	=221	=221
4b-/	.	.
8fL	.	]
8b-J	.	.
=222	=222	=222
4g	.	.
4e-)	.	.
=223	=223	=223
4a-X^<	.	.
(<4e-	.	.
=224	=224	=224
8gL)	.	.
8gJ	.	.
(<4e-	.	.
=225	=225	=225
4a-X^<	.	.
4e-	.	.
=226	=226	=226
8gL)	.	.
(<8g`<J	.	.
4e-	.	.
=227	=227	=227
!LO:TX:t=P:diminuendolike accent:problem	!	!
4f^<	.	.
4e-	.	.
!!LO:LB:g=original
=228	=228	=228
4.d)	.	.
(<8g	.	.
=229	=229	=229
8fL	.	.
8e-	.	.
8d	.	.
8cJ	.	.
=230	=230	=230
4.d)	.	.
8g	.	.
=231	=231	=231
4g^<	.	.
(<4c	.	.
=232	=232	=232
8fL)	.	.
8fJ	.	.
4d	.	.
=233	=233	=233
(<4g	.	.
4c	.	.
=234	=234	=234
8fL)	.	.
8fJ	.	.
4d	.	.
=235	=235	=235
4g^<	.	.
(<4c	.	.
=236	=236	=236
!LO:TX:Bi:t=stretto e	!	!
8a-XL	.	.
8a-J	.	.
4f	.	.
=237	=237	=237
!	!	!LO:HP:a
4b-/	.	<
4g	.	.
=238	=238	=238
8ccL	.	.
8ccJ	.	.
4a-X	.	.
=239	=239	=239
4g)	.	p
(<4d	.	.
=240	=240	=240
8gL	.	.
8gJ	.	.
4en)	.	.
=241	=241	=241
(<4f	.	.
4c)	.	.
!!LO:LB:g=original
=242	=242	=242
(<4f	.	.
16gLL	.	.
16a-X	.	.
16b-	.	.
16a-JJ)	.	.
=243	=243	=243
!LO:TX:t=P:diminuendolike accent:problem	!	!
(>4ee-^<	.	.
4b-)	.	.
=244	=244	=244
8ee-L	.	.
8ee-`>J	.	.
(>4cc	.	.
=245	=245	=245
4ee-^<	.	.
4b-	.	.
=246	=246	=246
8ee-L)	.	.
8ee-`>J	.	.
(>4cc	.	.
=247	=247	=247
4dd^<	.	.
4a	.	.
=248	=248	=248
8ddL)	.	.
8dd`>J	.	.
4b-	.	.
=249	=249	=249
(>4dd^<	.	.
4a	.	.
=250	=250	=250
8ddL)	.	.
8dd`>J	.	.
4b-	.	.
=251	=251	=251
[<2g^<	.	.
=252	=252	=252
4g]	.	.
4f	.	.
=253	=253	=253
[<2f^<	.	.
=254	=254	=254
4f]	.	.
4e-	.	.
=255	=255	=255
[<2e-^<	.	.
=256	=256	=256
4e-^<]	.	.
4d	.	p
!!LO:LB:g=original
=257	=257	=257
2r	.	.
=258	=258	=258
2r	.	.
=259	=259	=259
2r	.	.
=260	=260	=260
2r	.	.
=261	=261	=261
2r	.	.
=262	=262	=262
2r	.	.
=263	=263	=263
!LO:TX:t=P:w 6 taktach przerwy 2 znaki pionowe przy '6':problem	!	!
4b-/	.	ff
4g	.	.
=264	=264	=264
8b-L/	.	.
8b-J	.	.
4g	.	.
=265	=265	=265
4b-/	.	.
4g	.	.
=266	=266	=266
8b-L/	.	.
8b-J	.	.
4g	.	.
=267	=267	=267
!	!	!LO:DY:rj
[<2b-^</	.	f
=268	=268	=268
2b-_</	.	.
=269	=269	=269
8b-]/	.	.
8r	.	.
4r	.	.
=270	=270	=270
!LO:TX:a:B:t=1	!	!
2r	.	.
=271	=271	=271
4dd	.	.
(>16cc#XLL	.	.
16dd	.	.
16een	.	.
16ff#XJJ	.	.
=272	=272	=272
8gg`>L)	.	.
8b-J	.	.
4dd	.	.
=273	=273	=273
(<4a	.	.
16g#XLL	.	.
16a	.	.
16b-	.	.
16aJJ)	.	.
=274	=274	=274
8gnL	.	.
8b-J	.	.
(<4d^<	.	.
=275	=275	=275
4dd)	.	.
(>16cc#XLL	.	.
16dd	.	.
16een	.	.
16ff#XJJ	.	.
!!LO:LB:g=original
=276	=276	=276
8ggL)	.	.
8b-J	.	.
4dd^<	.	.
=277	=277	=277
4cc	.	.
4g	.	.
=278	=278	=278
4cc	.	<
(>16bnLL	.	<
16cc	.	.
16.dd	.	.
32ee-JJk	.	[[
=279	=279	=279
4ee-	.	>
4cc)	.	]
=280	=280	=280
8ee-L	.	.
8ee-J	.	.
4f#X^<	.	.
=281	=281	=281
!	!	!LO:DY:a:rj
4b-: 4d: 4G:	.	ff
4r	.	.
=282	=282	=282
2rdd	.	.
=283	=283	=283
2rdd	.	.
=284	=284	=284
(<4d	.	.
!	!	!LO:HP:a
16c#XLL	.	<
16d	.	.
16en	.	.
16f#XJJ)	.	[[
=285	=285	=285
8gL	.	.
8B-J	.	.
4d^<	.	.
=286	=286	=286
(>4cc	.	p
4a^<	.	.
=287	=287	=287
4g	.	.
8fL	.	.
8e-J)	.	.
=288	=288	=288
(<4d	.	.
!	!	!LO:HP:a
16enLL	.	<
16f#X	.	.
16g	.	.
16aJJ)	.	[[
!!LO:LB:g=original
=289	=289	=289
!	!	!LO:DY:rj
(<4b- 4d	.	f
4g 4B-	.	.
=290	=290	=290
8b-L 8d)	.	.
8b-`<J 8d	.	.
(<4g^< 4B-	.	.
=291	=291	=291
4b- 4d	.	.
4g 4B-	.	.
=292	=292	=292
8b-L 8d)	.	f
8b-`<J 8d	.	.
4g^< 4B-	.	.
=293	=293	=293
!	!	!LO:DY:rj
(<4b- 4d	.	f
4g 4B-	.	.
=294	=294	=294
8b-L) 8d	.	ff
8b-J 8d	.	.
(<4g 4B-	.	.
=295	=295	=295
8b-`< 8d)	.	.
8r	.	.
4r	.	.
=296	=296	=296
!LO:TX:a:B:t=1	!	!
2rdd	.	.
=297	=297	=297
!	!	!LO:DY:rj
[>2g [<2B-	.	p
=298	=298	=298
2g_> 2B-_<	.	.
=299	=299	=299
2g_> 2B-_<	.	<
=300	=300	=300
2g_> 2B-_<	.	.
=301	=301	=301
8g] 8B-]	.	.
8r	.	.
4r	.	.
=302	=302	=302
!	!	!LO:DY:rj
4gg 4b- 4d 4G/	.	ff
4r	.	.
=303	=303	=303
2G;>	.	.
!LO:TX:B:t=Fine	!	!
==	==	==
*-	*-	*-
!!title: @{OTL}; @{OPS} @{ONM} publisher: @{PPR}
!!!RDF**kern: > = above
!!!RDF**kern: < = below
!!!RDF**dynam: > = "decres.", fontstyle="bold-italic"
!!!RDF**dynam: < = "Cres.", fontstyle="bold-italic"
!!!RDF**kern: N = linked
!!!RDF**kern: i = editorial accidental
!!!ENC: Wojciech Jakubiak-Danek
!!!END: 2019-11-12
!!!EED:
!!!EST:
